X:78
T:Branohm #2
R:reel
C:Maire Breathnach
D:Maire Breathnach: "Voyage of Bran", 2b
M:C|
L:1/8
K:Ador
c2Bc AGED|CDEF GABd|~c2Bc AGEF|GEDB, A,2AB|
~c2Bc AGED|CDEF GABc|d~B3 BcBA|GEDB, A,2AB|
~c2Bc AGED|CDEF GABd|B~c3 cBAG|EGDB, A,2AB|
~c2Bc AGED|CDEF GABc|d~B3 BcBA|GEDB, A,2z2||
K:Amix
c3B ABcd|eAcd ~g2fg|e~a3 agea|gedB BAAB|
~c2Bc ABcd|eAcd ~g3a|bagb agef|gedB BAAB|
~c3B ABcd|eAcd g2fg|e~a3 agea|gedB BAAB|
~c3B ABcd|eAcd ~g3a|bagb agea|gedB A2AB||
